X:183
T: IHR TAEUBCHEN KOMMT ALLE ZU MIR
N: K2401
O: Europa, Mitteleuropa, Deutschland, Kassel
R: Kinder - Lied, Tanz -, Lauf - Spiel
M: 6/8
L: 1/8
K: E
=C | =GGGAAA | =GGFE2
A | =G2FE2A | =G2FE2
A | =G2FE2A | =G3E2
A | =G2FE2A | =G3E2
A | =G2FE2A | =G2FE2
A | =G2FE2A | =G2FE2
=C | =GGGAAA | =GGFE2

@@@ Tune index: 7520
